X:11081
T: Walzer 1870/75  FBb (wz08968)
S: Hanny Christen. Bd.X Unterwalden II. Glarus.
S: T\"anze aus Kerns. S.6-61. S.36 (wz08968) orig. F,Bb-Dur
S: \"Uberliefert durch Josef P\"untener (1870-1950) und Isidor Bucher
%%MIDI program 21
R:waltz
M:3/4
L:1/4
O:Switzerland
K:F %%MIDI gchordon
"C7"agc | a2g | "F"f2c | d2c | "C7"b2c | d2c | "F"a2c | d2c | "C7"agc | a2g | "F"f2c | 
d2c | "C7"d'2e | c'2e | "F"f3 | Acf :| "A7"a/b/aa | a/b/aa | "Dm"f3 | f2d | "F"c'/d'/c'a | 
"C7"b/c'/ bg | "F"a/b/ af | Acf | "A7"a/b/aa | a/b/aa | "Dm"f3 | "C7"g3 | "F"a/b/af | "C7"g/a/ge | 
("F"f3 | f)zd || [K:Bb] [L:1/8] "F7"=Bc dc Bc | g2z2f2 | "Bb"AB cB AB | g2z2f2 | "F7"=Bc dc Bc | b2z2a2 | "Bb"c'2z2b2 | 
f2z2d2 | "F7"=Bc dc Bc | g2z2f2 |  "Bb"AB cB AB |  g2z2f2 | ab c'b ab | "Gm"g6 | "F7"=ef gf ef | "Bb"d2z2z2 |]  
% wz08968
% July 29, 2016

